X: 1
M:2/4
L:1/16
K:G
(3def|g2B2 B2AG|F2A2 A2BA|G2g2 gfga|b2g2 g2(3def|
g2B2 B2AG|F2A2 A2BA|B2g2 gfga|b2g2 g2:|
|:Bc|d2B2 d2ef|g2f2 e2d2|d2B2 d2ef|g2f2 e2d2|
eeee e2d2|g2B2 B2A2|GGGF G2A2|
d2c2 B2A2|GGGG G2B2|AAAA A2B2|B2g2 f2a2|g4 g2:||

